X:109
T:Lette
O:No 109 Wm Clarke MS  Feltwell, Norfolk
I:abc2nwc
M:2/4
L:1/16
K:G
d2g2|f2d2 e2e2|d4c2e2|B2d2 B2c2|B2G2 d2g2|
f2d2 e2e2|d4cdec|B2d2 c2A2|G4:|
|:B2e2|e^dcB|efga|f2B2 b2bg|a2af g2ge|
B4b2b2|"^tr"g4a2a2|"^tr"f4agfg|e2g2 f2^d2|e6|]

